src/static/logos/cypress.svg

<?xml version="1.0" encoding="UTF-8"?>
<svg width="256px" height="256px" viewBox="0 0 256 256" version="1.1" xmlns="http://www.w3.org/2000/svg" xmlns:xlink="http://www.w3.org/1999/xlink" preserveAspectRatio="xMidYMid">
    <defs>
        <path d="M128,0 C198.749091,0 256,57.2509091 256,128 C256,198.749091 198.749091,256 128,256 C57.2509091,256 0,198.749091 0,128 C0,57.2509091 57.2509091,0 128,0 Z" id="path-1"></path>
        <path d="M128,3 C197.090909,3 253,58.9090909 253,128 C253,197.090909 197.090909,253 128,253 C58.9090909,253 3,197.090909 3,128 C3,58.9090909 58.9090909,3 128,3 Z" id="path-3"></path>
        <filter x="-2.4%" y="-2.4%" width="104.8%" height="104.8%" filterUnits="objectBoundingBox" id="filter-4">
            <feOffset dx="0" dy="0" in="SourceAlpha" result="shadowOffsetOuter1"></feOffset>
            <feGaussianBlur stdDeviation="2" in="shadowOffsetOuter1" result="shadowBlurOuter1"></feGaussianBlur>
            <feColorMatrix values="0 0 0 0 0   0 0 0 0 0   0 0 0 0 0  0 0 0 0.3 0" type="matrix" in="shadowBlurOuter1"></feColorMatrix>
        </filter>
    </defs>
		<g>
				<mask id="mask-2" fill="white">
						<use xlink:href="#path-1"></use>
				</mask>
				<g mask="url(#mask-2)">
						<use fill="black" fill-opacity="1" filter="url(#filter-4)" xlink:href="#path-3"></use>
						<use fill="#FFFFFF" fill-rule="evenodd" xlink:href="#path-3"></use>
				</g>
				<path d="M128,7.38596491 C194.666667,7.38596491 248.614035,61.3333333 248.614035,128 C248.614035,194.666667 194.666667,248.614035 128,248.614035 C61.3333333,248.614035 7.38596491,194.666667 7.38596491,128 C7.38596491,61.3333333 61.3333333,7.38596491 128,7.38596491 Z" fill="#5C5C5E" mask="url(#mask-2)"></path>
				<path d="M192.035088,181.070175 C187.649123,194.666667 181.070175,204.754386 171.859649,212.210526 C162.649123,219.666667 150.368421,223.614035 135.017544,224.929825 L131.947368,204.754386 C142.035088,203.438596 149.491228,201.245614 154.315789,197.736842 C156.070175,196.421053 159.578947,192.473684 159.578947,192.473684 L123.175439,75.8070175 L153.438596,75.8070175 L174.491228,163.087719 L196.859649,75.8070175 L226.245614,75.8070175 L192.035088,181.070175 Z M86.3333333,71.8596491 C93.3508772,71.8596491 99.9298246,72.7368421 105.192982,74.9298246 C110.894737,77.122807 116.157895,80.1929825 121.421053,84.5789474 L109.140351,101.245614 C105.631579,98.6140351 102.122807,96.8596491 99.0526316,95.5438596 C95.9824561,94.2280702 92.0350877,93.7894737 88.5263158,93.7894737 C73.6140351,93.7894737 66.1578947,105.192982 66.1578947,128.438596 C66.1578947,140.280702 67.9122807,148.614035 71.8596491,153.438596 C75.8070175,158.701754 81.0701754,160.894737 88.5263158,160.894737 C92.0350877,160.894737 95.5438596,160.45614 98.6140351,159.140351 C101.684211,157.824561 105.192982,156.070175 109.578947,153.438596 L121.859649,170.982456 C111.77193,179.315789 100.368421,183.263158 87.2105263,183.263158 C76.6842105,183.263158 67.9122807,181.070175 60.0175439,176.684211 C52.5614035,172.298246 46.4210526,165.719298 42.4736842,157.385965 C38.5263158,149.052632 36.3333333,139.403509 36.3333333,128 C36.3333333,117.035088 38.5263158,106.947368 42.4736842,98.6140351 C46.4210526,89.8421053 52.5614035,83.2631579 60.0175439,78.4385965 C67.4736842,74.4912281 76.245614,71.8596491 86.3333333,71.8596491 Z" fill="#FFFFFF" mask="url(#mask-2)"></path>
		</g>
</svg>

<svg width="256" height="256" xmlns="http://www.w3.org/2000/svg" xmlns:xlink="http://www.w3.org/1999/xlink" preserveAspectRatio="xMidYMid"><defs><path d="M128 0c70.75 0 128 57.25 128 128s-57.25 128-128 128S0 198.75 0 128 57.25 0 128 0z" id="a"/><path d="M128 3c69.09 0 125 55.91 125 125s-55.91 125-125 125S3 197.09 3 128 58.91 3 128 3z" id="d"/><filter x="-2.4%" y="-2.4%" width="104.8%" height="104.8%" filterUnits="objectBoundingBox" id="c"><feOffset in="SourceAlpha" result="shadowOffsetOuter1"/><feGaussianBlur stdDeviation="2" in="shadowOffsetOuter1" result="shadowBlurOuter1"/><feColorMatrix values="0 0 0 0 0 0 0 0 0 0 0 0 0 0 0 0 0 0 0.3 0" in="shadowBlurOuter1"/></filter></defs><mask id="b" fill="#fff"><use xlink:href="#a"/></mask><g mask="url(#b)"><use filter="url(#c)" xlink:href="#d"/><use fill="#FFF" fill-rule="evenodd" xlink:href="#d"/></g><path d="M128 7.386c66.667 0 120.614 53.947 120.614 120.614S194.667 248.614 128 248.614 7.386 194.667 7.386 128 61.333 7.386 128 7.386z" fill="#5C5C5E" mask="url(#b)"/><path d="M192.035 181.07c-4.386 13.597-10.965 23.684-20.175 31.14-9.21 7.457-21.492 11.404-36.842 12.72l-3.07-20.176c10.087-1.315 17.543-3.508 22.368-7.017 1.754-1.316 5.263-5.263 5.263-5.263L123.175 75.807h30.264l21.052 87.28 22.369-87.28h29.386l-34.21 105.263zM86.333 71.86c7.018 0 13.597.877 18.86 3.07 5.702 2.193 10.965 5.263 16.228 9.649l-12.28 16.667c-3.51-2.632-7.018-4.386-10.088-5.702-3.07-1.316-7.018-1.755-10.527-1.755-14.912 0-22.368 11.404-22.368 34.65 0 11.842 1.754 20.175 5.702 25 3.947 5.263 9.21 7.456 16.666 7.456 3.51 0 7.018-.439 10.088-1.755 3.07-1.315 6.579-3.07 10.965-5.701l12.28 17.543c-10.087 8.334-21.49 12.281-34.648 12.281-10.527 0-19.299-2.193-27.193-6.579-7.457-4.386-13.597-10.965-17.544-19.298-3.948-8.333-6.14-17.982-6.14-29.386 0-10.965 2.192-21.053 6.14-29.386 3.947-8.772 10.087-15.35 17.544-20.175 7.456-3.948 16.228-6.58 26.315-6.58z" fill="#FFF" mask="url(#b)"/></svg>
